X:1
T:Ring, Ye Chiming Bells
T:Ring, Ye Chiming Bells
T:E. G. Snelling
T:Flora Kirkland, 1906
T:Public Domain Courtesy of the Cyber Hymnal™
T:Public Domain Courtesy of the Cyber Hymnal™
C:E. G. Snelling
Z:Public Domain
Z:Courtesy of the Cyber Hymnal™
%%score ( 1 2 ) ( 3 4 )
L:1/8
Q:1/4=110
M:4/4
K:Ab
V:1 treble 
V:2 treble 
V:3 bass 
V:4 bass 
V:1
 EA[CA][Ec] | [Fc]2 [FB]2 [Fd]2 [DG]2 | [DB]2 [CA]2 GFEF | G3 A Bcd=d | e4 EA[CA][Ec] | %5
w: 1.~Ring, ye chim- ing|bells, your glad- some|sto- ry, At this hap- py|time, this won- drous East- er|time! Tell- ing how the|
w: 2.~Ev- er, as you|chime the East- er|glad- ness, Out of dis- tant|years, yea, out of si- lent|years, Com- eth still the|
w: 3.~Look! we al- most|seem to see the|shin- ing Of the an- gel|bright, in glor- ious robes of|light! Hark! he saith, “The|
 [Fc]2 [FB]2 [Fd]2 [DG]2 | B2 A2 Acce | [B=d]3 [Ac] [GB][FA][EG][=DF] | E4 || %9
w: King a- rose in|glo- ry, Ring your sweet- est|chime, your glad tri- umph- ant|chime.|
w: balm for earth- ly|sad- ness, Calm for earth- ly|fears and joy for earth- ly|tears.|
w: One in death re-|clin- ing, Hath a- ris’n in|might, a- ris’n in pow’r and|might!”|
"^Refrain" !>!E2 !>!=E2 | !>!F4 GcGc | B2 A2 [EAe]2 [=DA=d]2 | [EGd]2 [EG][FGd] [EGc]2 [DB]2 | %13
w: ||||
w: Ring, ye|bells! ring as dawn ap-|pear- eth! Ring, oh|ring, for the an- gels|
w: ||||
 [CE]4 | !>!E2 !>!=E2 | !>!F4 GcGc | B2 A2 F2 [FAf]2 | [EAe]2 [Fd][_FA] [Ec]2 [DB]2 | [CA]4 |] %19
w: ||||||
w: bright|Came to|tell news that ev- er|cheer- eth All the|pil- grims who seek the|light.|
w: ||||||
V:2
 x4 | x8 | x8 | x8 | x4 E2 x2 | x8 | C4 F2 A2 | x8 | E4 || x4 | x8 | x8 | x8 | x4 | x4 | x8 | x8 | %17
 x8 | x4 |] %19
V:3
 [C,C]2 [A,,A,]2 | [D,,D,]2 [F,B,D]2 [E,,E,]2 [E,B,]2 | A,,2 [E,A,]2 [C,C]2 [_C,_C]2 | %3
 ([B,,B,]2 [E,G,D]2) [E,,E,]2 [E,G,B,]2 | A,,2 [E,A,C]2 [C,C]2 [A,,A,]2 | %5
 [D,,D,]2 [F,B,D]2 [E,,E,]2 [=E,,=E,]2 | [F,,F,]4 [A,,A,]2 [F,,F,]2 | %7
 B,,2 [A,B,=D]2 [B,,B,]2 B,A, | ([E,G,]2 E,,2) || !>![C,C]2 !>![_C,_C]2 | %10
 (!>![B,,B,]2 [E,B,D]2) [E,,E,]2 [E,B,D]2 | [A,,A,]2 [E,A,C]2 [C,C]2 [_C,_C]2 | %12
 [B,,B,]2 [E,B,D]2 z ([E,,E,][F,,F,][G,,G,]) | ([A,,A,]2 E,2) | !>![C,C]2 !>![_C,_C]2 | %15
 (!>![B,,B,]2 !>![E,B,D]2) [E,,E,]2 [E,B,D]2 | [F,,F,]2 [F,A,C]2 [=D,A,B,]2 [=B,,=B,]2 | %17
 [C,C]2 [D,D]2 [E,A,]2 [E,G,]2 | (A,2 A,,2) |] %19
V:4
 x4 | x8 | x8 | x8 | x8 | x8 | x8 | x6 B,,2 | x4 || x4 | x8 | x8 | x8 | x4 | x4 | x8 | x8 | x8 | %18
 x4 |] %19

